X: 192
T: The boy from the mountain
C: anon.
O: Ireland
B: Francis O'Neill: "The Dance Music of Ireland" (1907) no. 192
R: Double jig
Z: Transcribed by Frank Nordberg - http://www.musicaviva.com
F: http://www.musicaviva.com/abc/tunes/ireland/oneill-1001/oneill-1001-019
2.abc
m: ~n = m/n/
m: Tn2 = (3n/o/n/ o/4n/4-n/
M: 6/8
L: 1/8
K: D
F2-~F G2-~G|A2D GED|F2-~F G2-~G|Adc (d>cB/A/)|F2-~F G2-~G|A2A Ade|{g}fed
cAG|[1 Adc (d>cB/A/):|[2 Adc d2H||
(3A/B/c/|d2e {e}f2g|Te2d cAG|d2e {e}f2g|(f/g/a)f gec|d2e {e}f2g|e2d cde|f
ed cAG|ABc d2 (3A/B/c/|
d2e {e}f2g|Te2d cAG|d2e {e}f2g|(f/g/a)f gec|d2e fe(d/f/)|ed(c/e/) {c}d2e|
{e}fed {B}cAG|Adc (d>cA/G/)|]
W:
W:
W: From Musica Viva - http://www.musicaviva.com
W: the Internet center for free sheet music downloads.


